; generated by PrusaSlicer 2.4.2+x64 on 2022-07-06 at 16:54:59 UTC

; 

; external perimeters extrusion width = 0.45mm
; perimeters extrusion width = 0.45mm
; infill extrusion width = 0.45mm
; solid infill extrusion width = 0.45mm
; top infill extrusion width = 0.40mm
; first layer extrusion width = 0.42mm

M73 P0 R14
M73 Q0 S14
M201 X1000 Y1000 Z200 E5000 ; sets maximum accelerations, mm/sec^2
M203 X200 Y200 Z12 E120 ; sets maximum feedrates, mm / sec
M204 P1250 R1250 T1250 ; sets acceleration (P, T) and retract acceleration (R), mm/sec^2
M205 X8.00 Y8.00 Z0.40 E4.50 ; sets the jerk limits, mm/sec
M205 S0 T0 ; sets the minimum extruding and travel feed rate, mm/sec
M107
;TYPE:Custom
M862.3 P "MK3S" ; printer model check
M862.1 P0.4 ; nozzle diameter check
M115 U3.10.1 ; tell printer latest fw version
G90 ; use absolute coordinates
M83 ; extruder relative mode
M104 S215 ; set extruder temp
M140 S60 ; set bed temp
M190 S60 ; wait for bed temp
M109 S215 ; wait for extruder temp
G28 W ; home all without mesh bed level
G80 ; mesh bed leveling
G1 Z0.2 F720
G1 Y-3 F1000 ; go outside print area
G92 E0
G1 X60 E9 F1000 ; intro line
G1 X100 E12.5 F1000 ; intro line
G92 E0
M221 S95

; Don't change E values below. Excessive value can damage the printer.
M907 E430 ; set extruder motor current
G21 ; set units to millimeters
G90 ; use absolute coordinates
M83 ; use relative distances for extrusion
M900 K0.05 ; Filament gcode LA 1.5
M900 K30 ; Filament gcode LA 1.0
M107
;LAYER_CHANGE
;Z:0.2
;HEIGHT:0.2
;BEFORE_LAYER_CHANGE
G92 E0.0
;0.2


G1 E-.8 F2100
G1 Z.4 F720
;AFTER_LAYER_CHANGE
;0.2
G1 X111.978 Y97.283 F10800
G1 Z.2 F720
G1 E.8 F2100
M204 S800
;TYPE:Skirt/Brim
;WIDTH:0.42
G1 F1200
G1 X112.524 Y96.835 E.02213
G1 X113.24 Y96.49 E.02493
G1 X114.237 Y96.326 E.03166
G1 X133.786 Y96.343 E.61295
G1 X134.561 Y96.52 E.02493
G1 X135.117 Y96.787 E.01934
G1 X135.675 Y97.22 E.02213
G1 X136.171 Y97.841 E.02493
G1 X136.468 Y98.482 E.02213
M73 Q1 S14
G1 X136.615 Y99.17 E.02206
G1 X136.615 Y111.011 E.37128
G1 X136.468 Y111.702 E.02214
M73 P1 R14
G1 X136.171 Y112.342 E.02214
G1 X135.738 Y112.9 E.02213
G1 X135.193 Y113.348 E.02214
G1 X134.476 Y113.693 E.02493
G1 X133.48 Y113.858 E.03167
G1 X114.239 Y113.858 E.60328
G1 X113.24 Y113.693 E.03174
G1 X112.6 Y113.396 E.02214
G1 X112.042 Y112.964 E.02214
G1 X111.594 Y112.418 E.02214
G1 X111.249 Y111.702 E.02493
G1 X111.084 Y110.703 E.03174
G1 X111.101 Y99.172 E.36154
G1 X111.249 Y98.482 E.02213
G1 X111.546 Y97.841 E.02214
G1 X111.941 Y97.331 E.02026
M204 S1000
G1 X112.238 Y97.559 F10800
M204 S800
G1 F1200
G1 X112.724 Y97.155 E.01984
G1 X113.365 Y96.846 E.02229
G1 X114.237 Y96.703 E.0277
G1 X133.744 Y96.718 E.61163
G1 X134.436 Y96.876 E.02228
G1 X134.916 Y97.107 E.01669
G1 X135.408 Y97.486 E.01949
G1 X135.851 Y98.042 E.02228
G1 X136.112 Y98.606 E.01949
G1 X136.24 Y99.212 E.01942
G1 X136.24 Y110.969 E.36864
G1 X136.112 Y111.577 E.01949
G1 X135.851 Y112.142 E.01949
G1 X135.472 Y112.634 E.01949
G1 X134.992 Y113.029 E.01949
G1 X134.352 Y113.337 E.02228
G1 X133.48 Y113.481 E.0277
G1 X114.239 Y113.481 E.60328
G1 X113.365 Y113.337 E.02778
G1 X112.8 Y113.077 E.01949
G1 X112.308 Y112.697 E.01949
G1 X111.913 Y112.218 E.01949
G1 X111.605 Y111.577 E.02228
G1 X111.461 Y110.703 E.02778
G1 X111.461 Y99.48 E.35187
G1 X111.605 Y98.606 E.02778
G1 X111.865 Y98.042 E.01949
G1 X112.201 Y97.607 E.01724
M204 S1000
; printing object Lego_v1.stl id:0 copy 0
;WIPE_START
G1 F8640
G1 X112.724 Y97.155 E-.15966
G1 X113.365 Y96.846 E-.16415
G1 X114.237 Y96.703 E-.20402
G1 X115.242 Y96.704 E-.23218
;WIPE_END
G1 E-.04 F2100
G1 Z.6 F720
G1 X114.528 Y99.769 F10800
G1 Z.2 F720
G1 E.8 F2100
M204 S800
;TYPE:External perimeter
G1 F1200
G1 X132.488 Y99.769 E.56314
G1 X132.639 Y99.78 E.00472
G1 X132.919 Y99.9 E.00956
G1 X133.051 Y100.032 E.00587
G1 X133.13 Y100.178 E.0052
G1 X133.179 Y100.329 E.005
G1 X133.189 Y100.47 E.0044
G1 X133.189 Y109.714 E.28985
G1 X133.178 Y109.864 E.00472
G1 X133.058 Y110.144 E.00956
G1 X132.926 Y110.277 E.00587
G1 X132.78 Y110.356 E.0052
G1 X132.628 Y110.405 E.005
G1 X132.488 Y110.414 E.0044
G1 X115.228 Y110.414 E.54119
G1 X115.078 Y110.404 E.00472
M73 P2 R14
M73 Q2 S14
G1 X114.798 Y110.284 E.00956
G1 X114.665 Y110.152 E.00587
G1 X114.586 Y110.006 E.0052
G1 X114.537 Y109.854 E.005
G1 X114.528 Y109.714 E.0044
G1 X114.528 Y99.829 E.30993
M204 S1000
G1 X114.528 Y99.369 F10800
G1 X114.311 Y99.444
M204 S800
G1 F1200
G1 X114.744 Y99.395 E.01367
G1 X132.482 Y99.392 E.55615
G1 X133.451 Y99.476 E.03049
G1 X133.491 Y99.546 E.00253
G1 X133.566 Y100.465 E.02889
G1 X133.566 Y109.718 E.29012
G1 X133.475 Y110.699 E.03088
G1 X132.482 Y110.791 E.03125
G1 X115.235 Y110.791 E.54079
G1 X114.243 Y110.7 E.03121
G1 X114.151 Y109.719 E.03092
G1 X114.151 Y100.457 E.29038
G1 X114.154 Y99.981 E.01493
G1 X114.203 Y99.545 E.01376
G1 X114.223 Y99.487 E.00192
G1 X114.255 Y99.467 E.00119
M204 S1000
G1 X114.611 Y99.708 F10800
;WIPE_START
G1 F8640
G1 X114.744 Y99.395 E-.11405
G1 X117.542 Y99.395 E-.64595
;WIPE_END
G1 E-.04 F2100
G1 Z.6 F720
G1 X114.374 Y110.086 F10800
G1 Z.2 F720
G1 E.8 F2100
M204 S800
;TYPE:Gap fill
;WIDTH:0.187803
G1 F1200
G1 X114.547 Y110.543 E.00589
M204 S1000
G1 X114.395 Y110.399 F10800
M204 S800
;WIDTH:0.169847
G1 F1200
G1 X114.667 Y110.496 E.00305
M204 S1000
M204 S800
;WIDTH:0.157833
G1 X114.778 Y110.523 E.00109
M204 S1000
M204 S800
;WIDTH:0.125576
G1 X114.889 Y110.551 E.00078
M204 S1000
;WIPE_START
G1 F8640
G1 X114.778 Y110.523 E-.02635
;WIPE_END
G1 E-.77365 F2100
G1 Z.6 F720
G1 X132.861 Y110.568 F10800
G1 Z.2 F720
G1 E.8 F2100
M204 S800
;WIDTH:0.187702
G1 F1200
G1 X133.318 Y110.395 E.00588
M204 S1000
G1 X133.173 Y110.547 F10800
M204 S800
;WIDTH:0.170102
G1 F1200
G1 X133.27 Y110.275 E.00305
M204 S1000
M204 S800
;WIDTH:0.158087
G1 X133.298 Y110.163 E.0011
M204 S1000
M204 S800
;WIDTH:0.125703
G1 X133.326 Y110.052 E.00079
M204 S1000
;WIPE_START
G1 F8640
G1 X133.298 Y110.163 E-.02651
;WIPE_END
G1 E-.77349 F2100
G1 Z.6 F720
G1 X133.343 Y100.098 F10800
G1 Z.2 F720
G1 E.8 F2100
M204 S800
;WIDTH:0.187805
G1 F1200
G1 X133.169 Y99.641 E.00588
M204 S1000
G1 X133.321 Y99.785 F10800
M204 S800
;WIDTH:0.169106
G1 F1200
G1 X133.049 Y99.688 E.00303
M204 S1000
M204 S800
;WIDTH:0.157186
G1 X132.939 Y99.661 E.00108
M204 S1000
M204 S800
;WIDTH:0.125253
G1 X132.829 Y99.633 E.00078
M204 S1000
; stop printing object Lego_v1.stl id:0 copy 0
M106 S84.15
;LAYER_CHANGE
;Z:0.35
;HEIGHT:0.15
;BEFORE_LAYER_CHANGE
G92 E0.0
;0.35


;WIPE_START
G1 F8640
G1 X132.939 Y99.661 E-.02619
;WIPE_END
G1 E-.77381 F2100
G1 Z.6 F720
;AFTER_LAYER_CHANGE
;0.35
G1 X132.942 Y96.342 F10800
G1 Z.35 F720
G1 E.8 F2100
;TYPE:Skirt/Brim
;WIDTH:0.42
G1 F1465
G1 X133.786 Y96.343 E.02041
G1 X134.561 Y96.52 E.01923
G1 X135.117 Y96.787 E.01492
G1 X135.675 Y97.22 E.01707
G1 X136.171 Y97.841 E.01923
G1 X136.468 Y98.482 E.01707
G1 X136.615 Y99.17 E.01702
G1 X136.615 Y111.011 E.28639
G1 X136.468 Y111.702 E.01707
G1 X136.171 Y112.342 E.01707
G1 X135.738 Y112.9 E.01707
G1 X135.193 Y113.348 E.01708
G1 X134.476 Y113.693 E.01923
G1 X133.48 Y113.858 E.02442
G1 X114.239 Y113.858 E.46534
G1 X113.24 Y113.693 E.02448
G1 X112.6 Y113.396 E.01708
G1 X112.042 Y112.964 E.01707
G1 X111.594 Y112.418 E.01707
G1 X111.249 Y111.702 E.01923
G1 X111.084 Y110.703 E.02448
G1 X111.101 Y99.172 E.27887
G1 X111.249 Y98.482 E.01707
M73 Q3 S14
G1 X111.546 Y97.841 E.01708
G1 X111.978 Y97.283 E.01708
G1 X112.524 Y96.835 E.01707
G1 X113.24 Y96.49 E.01923
G1 X114.237 Y96.326 E.02442
G1 X132.882 Y96.342 E.45093
M73 P3 R14
G1 X132.882 Y96.717 F10800
G1 F1465
G1 X133.744 Y96.718 E.02085
G1 X134.436 Y96.876 E.01719
G1 X134.916 Y97.107 E.01287
G1 X135.408 Y97.486 E.01503
G1 X135.851 Y98.042 E.01719
G1 X136.112 Y98.606 E.01503
G1 X136.24 Y99.212 E.01498
G1 X136.24 Y110.969 E.28434
G1 X136.112 Y111.577 E.01503
G1 X135.851 Y112.142 E.01503
G1 X135.472 Y112.634 E.01503
G1 X134.992 Y113.029 E.01503
G1 X134.352 Y113.337 E.01719
G1 X133.48 Y113.481 E.02137
G1 X114.239 Y113.481 E.46534
G1 X113.365 Y113.337 E.02143
G1 X112.8 Y113.077 E.01503
G1 X112.308 Y112.697 E.01503
G1 X111.913 Y112.218 E.01503
G1 X111.605 Y111.577 E.01719
G1 X111.461 Y110.703 E.02143
G1 X111.461 Y99.48 E.27141
G1 X111.605 Y98.606 E.02143
G1 X111.865 Y98.042 E.01503
G1 X112.245 Y97.55 E.01503
G1 X112.724 Y97.155 E.01503
G1 X113.365 Y96.846 E.01719
G1 X114.237 Y96.703 E.02137
G1 X132.822 Y96.717 E.44948
; printing object Lego_v1.stl id:0 copy 0
;WIPE_START
G1 F8640
G1 X133.744 Y96.718 E-.21289
G1 X134.436 Y96.876 E-.16409
G1 X134.916 Y97.107 E-.12291
G1 X135.408 Y97.486 E-.14351
G1 X135.723 Y97.881 E-.11659
;WIPE_END
G1 E-.04 F2100
G1 Z.75 F720
G1 X133.047 Y100.218 F10800
G1 Z.35 F720
G1 E.8 F2100
M204 S800
;TYPE:External perimeter
;WIDTH:0.45
G1 F1465
G1 X133.101 Y100.457 E.00639
G1 X133.101 Y109.726 E.24151
G1 X133.044 Y109.975 E.00665
G1 X132.869 Y110.195 E.00732
G1 X132.628 Y110.311 E.00698
G1 X132.488 Y110.327 E.00366
G1 X115.216 Y110.327 E.45005
G1 X114.98 Y110.273 E.0063
M73 P3 R13
G1 X114.84 Y110.185 E.0043
G1 X114.681 Y109.989 E.00657
G1 X114.615 Y109.729 E.007
G1 X114.615 Y99.857 E.25723
G1 X132.501 Y99.857 E.46602
G1 X132.748 Y99.913 E.00662
G1 X132.946 Y100.068 E.00655
G1 X133.013 Y100.168 E.00313
M204 S1000
G1 X133.29 Y100.246 F10800
;WIPE_START
G1 F8640
G1 X133.101 Y100.457 E-.06975
G1 X133.101 Y103.446 E-.69025
;WIPE_END
G1 E-.04 F2100
G1 Z.75 F720
G1 X114.526 Y110.461 F10800
G1 Z.35 F720
G1 E.8 F2100
M204 S800
;TYPE:Perimeter
G1 F1465
G1 X114.481 Y110.461 E.00117
G1 X114.488 Y110.414 E.00123
M204 S1000
;WIPE_START
G1 F8640
G1 X114.481 Y110.461 E-.01087
G1 X114.488 Y110.414 E-.01087
;WIPE_END
G1 E-.77826 F2100
G1 Z.75 F720
G1 X133.191 Y110.461 F10800
G1 Z.35 F720
M73 Q3 S13
G1 E.8 F2100
M204 S800
G1 F1465
G1 X133.235 Y110.406 E.00184
G1 X133.235 Y110.445 E.00103
M204 S1000
;WIPE_START
G1 F8640
G1 X133.235 Y110.406 E-.0091
G1 X133.235 Y110.445 E-.0091
;WIPE_END
G1 E-.78181 F2100
G1 Z.75 F720
G1 X133.235 Y99.764 F10800
G1 Z.35 F720
G1 E.8 F2100
M204 S800
G1 F1465
G1 X133.183 Y99.723 E.00172
G1 X133.216 Y99.723 E.00085
M204 S1000
M73 Q4 S13
G1 X133.551 Y99.327 F10800
M204 S800
;TYPE:External perimeter
G1 F1465
G1 X133.61 Y99.374 E.00198
G1 X133.653 Y99.493 E.00329
G1 X133.653 Y110.678 E.29142
G1 X133.631 Y110.777 E.00265
M73 P4 R13
G1 X133.564 Y110.853 E.00264
G1 X133.452 Y110.879 E.00299
G1 X114.264 Y110.879 E.49995
G1 X114.165 Y110.856 E.00265
G1 X114.089 Y110.789 E.00264
G1 X114.063 Y110.678 E.00299
G1 X114.063 Y99.506 E.29109
G1 X114.089 Y99.394 E.00299
G1 X114.165 Y99.327 E.00264
G1 X114.264 Y99.305 E.00265
G1 X133.492 Y99.313 E.501
M204 S1000
G1 X133.557 Y99.403 F10800
G1 X132.884 Y99.622
;TYPE:Gap fill
;WIDTH:0.247011
G1 F1465
G1 X132.943 Y99.781 E.00228
G1 X132.884 Y99.622 F10800
;WIDTH:0.247012
G1 F1465
G1 X132.864 Y99.618 E.00028
;WIDTH:0.240447
G1 X132.701 Y99.6 E.00212
;WIDTH:0.203919
G1 X132.539 Y99.582 E.00175
;WIDTH:0.16739
G1 X132.524 Y99.581 E.00013
;WIDTH:0.16638
G1 X114.406 Y99.581 E.15162
;WIDTH:0.189406
G1 X114.351 Y99.592 E.00056
;WIDTH:0.189407
G1 X114.339 Y99.648 E.00056
;WIDTH:0.166384
G1 X114.339 Y109.755 E.08458
;WIDTH:0.168456
G1 X114.34 Y109.772 E.00014
;WIDTH:0.173586
G1 X114.359 Y109.925 E.00136
;WIPE_START
G1 F8640
G1 X114.34 Y109.772 E-.03561
;WIPE_END
G1 E-.76439 F2100
G1 Z.75 F720
G1 X115.104 Y110.67 F10800
G1 Z.35 F720
G1 E.8 F2100
;WIDTH:0.116889
G1 F1465
G1 X114.878 Y110.502 E.00149
;WIDTH:0.109954
G1 X114.803 Y110.435 E.00048
G1 X114.882 Y110.569 F10800
;WIDTH:0.206606
G1 F1465
G1 X115.177 Y110.602 E.00322
;WIDTH:0.168089
G1 X115.192 Y110.603 E.00013
;WIDTH:0.166386
G1 X132.5 Y110.603 E.14485
;WIDTH:0.166808
G1 X132.507 Y110.603 E.00006
;WIDTH:0.187904
G1 X132.695 Y110.592 E.00183
;WIDTH:0.194048
G1 X132.719 Y110.589 E.00024
;WIDTH:0.19405
G1 X132.931 Y110.423 E.00272
G1 X133.182 Y110.165 F10800
;WIDTH:0.246213
G1 F1465
G1 X133.337 Y110.107 E.00222
;WIDTH:0.246213
G1 X133.34 Y110.091 E.00021
;WIDTH:0.241622
G1 X133.358 Y109.928 E.00214
;WIDTH:0.204855
G1 X133.376 Y109.765 E.00177
;WIDTH:0.168088
G1 X133.377 Y109.75 E.00013
;WIDTH:0.166384
G1 X133.377 Y100.434 E.07796
;WIDTH:0.168088
G1 X133.376 Y100.418 E.00013
;WIDTH:0.209234
G1 X133.342 Y100.113 E.0034
; stop printing object Lego_v1.stl id:0 copy 0
M106 S170.85
;LAYER_CHANGE
;Z:0.5
;HEIGHT:0.15
;BEFORE_LAYER_CHANGE
G92 E0.0
;0.5


;WIPE_START
G1 F8640
G1 X133.376 Y100.418 E-.07108
;WIPE_END
G1 E-.72892 F2100
G1 Z.75 F720
;AFTER_LAYER_CHANGE
;0.5
G1 X136.615 Y100.418 F10800
G1 Z.5 F720
G1 E.8 F2100
;TYPE:Skirt/Brim
;WIDTH:0.42
G1 F1448
G1 X136.615 Y111.011 E.25619
G1 X136.468 Y111.702 E.01707
G1 X136.171 Y112.342 E.01707
G1 X135.738 Y112.9 E.01707
G1 X135.193 Y113.348 E.01708
G1 X134.476 Y113.693 E.01923
G1 X133.48 Y113.858 E.02442
G1 X114.239 Y113.858 E.46534
G1 X113.24 Y113.693 E.02448
G1 X112.6 Y113.396 E.01708
G1 X112.042 Y112.964 E.01707
G1 X111.594 Y112.418 E.01707
G1 X111.249 Y111.702 E.01923
G1 X111.084 Y110.703 E.02448
G1 X111.101 Y99.172 E.27887
G1 X111.249 Y98.482 E.01707
G1 X111.546 Y97.841 E.01708
G1 X111.978 Y97.283 E.01708
G1 X112.524 Y96.835 E.01707
G1 X113.24 Y96.49 E.01923
G1 X114.237 Y96.326 E.02442
G1 X133.786 Y96.343 E.4728
G1 X134.561 Y96.52 E.01923
M73 Q5 S13
G1 X135.117 Y96.787 E.01492
G1 X135.675 Y97.22 E.01707
G1 X136.171 Y97.841 E.01923
G1 X136.468 Y98.482 E.01707
G1 X136.615 Y99.17 E.01702
G1 X136.615 Y100.358 E.02875
M73 P5 R13
G1 X136.24 Y100.358 F10800
G1 F1448
G1 X136.24 Y110.969 E.25662
G1 X136.112 Y111.577 E.01503
G1 X135.851 Y112.142 E.01503
G1 X135.472 Y112.634 E.01503
G1 X134.992 Y113.029 E.01503
G1 X134.352 Y113.337 E.01719
G1 X133.48 Y113.481 E.02137
G1 X114.239 Y113.481 E.46534
G1 X113.365 Y113.337 E.02143
G1 X112.8 Y113.077 E.01503
G1 X112.308 Y112.697 E.01503
G1 X111.913 Y112.218 E.01503
G1 X111.605 Y111.577 E.01719
G1 X111.461 Y110.703 E.02143
G1 X111.461 Y99.48 E.27141
G1 X111.605 Y98.606 E.02143
G1 X111.865 Y98.042 E.01503
G1 X112.245 Y97.55 E.01503
G1 X112.724 Y97.155 E.01503
G1 X113.365 Y96.846 E.01719
G1 X114.237 Y96.703 E.02137
G1 X133.744 Y96.718 E.47177
G1 X134.436 Y96.876 E.01719
G1 X134.916 Y97.107 E.01287
G1 X135.408 Y97.486 E.01503
G1 X135.851 Y98.042 E.01719
G1 X136.112 Y98.606 E.01503
G1 X136.24 Y99.212 E.01498
G1 X136.24 Y100.298 E.02628
; printing object Lego_v1.stl id:0 copy 0
;WIPE_START
G1 F8640
G1 X136.24 Y103.59 E-.76
;WIPE_END
G1 E-.04 F2100
G1 Z.9 F720
G1 X133.086 Y100.338 F10800
G1 Z.5 F720
G1 E.8 F2100
M204 S800
;TYPE:External perimeter
;WIDTH:0.45
G1 F1448
G1 X133.101 Y100.47 E.00345
G1 X133.101 Y109.726 E.24118
G1 X133.044 Y109.975 E.00665
G1 X132.869 Y110.195 E.00732
G1 X132.628 Y110.311 E.00698
G1 X132.488 Y110.327 E.00366
G1 X115.216 Y110.327 E.45005
G1 X114.98 Y110.273 E.0063
G1 X114.839 Y110.184 E.00433
G1 X114.672 Y109.975 E.00698
G1 X114.615 Y109.726 E.00665
G1 X114.615 Y99.857 E.25716
G1 X132.501 Y99.857 E.46602
G1 X132.737 Y99.911 E.0063
G1 X132.876 Y99.998 E.00429
G1 X133.022 Y100.176 E.00599
G1 X133.064 Y100.282 E.00299
M204 S1000
G1 X133.214 Y100.373 F10800
;WIPE_START
G1 F8640
G1 X133.101 Y100.47 E-.0441
G1 X133.101 Y103.57 E-.7159
;WIPE_END
G1 E-.04 F2100
G1 Z.9 F720
G1 X114.525 Y110.461 F10800
G1 Z.5 F720
G1 E.8 F2100
M204 S800
;TYPE:Perimeter
G1 F1448
G1 X114.481 Y110.461 E.00115
G1 X114.488 Y110.414 E.00123
M204 S1000
;WIPE_START
G1 F8640
G1 X114.481 Y110.461 E-.01094
G1 X114.488 Y110.414 E-.01094
;WIPE_END
G1 E-.77812 F2100
G1 Z.9 F720
G1 X133.191 Y110.461 F10800
G1 Z.5 F720
G1 E.8 F2100
M204 S800
G1 F1448
G1 X133.235 Y110.406 E.00184
G1 X133.235 Y110.445 E.00103
M204 S1000
;WIPE_START
G1 F8640
G1 X133.235 Y110.406 E-.0091
G1 X133.235 Y110.445 E-.0091
;WIPE_END
G1 E-.78181 F2100
G1 Z.9 F720
G1 X133.235 Y99.724 F10800
G1 Z.5 F720
G1 E.8 F2100
M204 S800
G1 F1448
G1 X133.235 Y99.777 E.0014
G1 X133.201 Y99.736 E.0014
M204 S1000
G1 X133.551 Y99.327 F10800
M204 S800
;TYPE:External perimeter
G1 F1448
G1 X133.61 Y99.374 E.00199
G1 X133.653 Y99.493 E.00329
G1 X133.653 Y110.678 E.29142
G1 X133.628 Y110.789 E.00299
G1 X133.551 Y110.856 E.00264
G1 X133.452 Y110.879 E.00265
G1 X114.264 Y110.879 E.49995
G1 X114.152 Y110.853 E.00299
M73 P6 R13
M73 Q6 S13
